X:8
T:Captain Horne
M:4/4
L:1/8
R:Strathspey
K:D
d>e|"D"f>A A/A/A "G"B<G d>e|"D"f>A A/A/A "A"B<dd>e|"D"f>A A/A/A "G"B<G g
2|"D"f<ae>d "G"B<d"D"d>e:||:"D"f2 f/e/d f2 f<a|"D"f2 f/e/d "A"e>f a2|"D"
f2 f/e/d "G"e>fg>e|1 "A"a>fe>d "G"B<d"D"d>e:||2"A"a>fe>d "G"B<d"D"d2||
